X:456
T:
R:vals
S:Efter »Florsen» i Burs.
O:Gotland, Burs
M:3/4
L:1/8
K:G
D2|G3 ABc|d3 cBd|g3 Bce|d4 Bd|(dc)(cA)(FA)|(AG)(GD)(B,D)|G3 ABc|d3 cBd|g4 d2|b4 g2|a4 fa|g4::Bd|(dc)(cA)(FA)|(AG)(GD)(B,D)|(cB)(cB)(Ac)|(ed)(dc)(Bd)|(gf)(ge)(ce)|(ed)(dc)(Bd)|(dc)(cA)(FA)|G4::
D2|G4 (BA)|G4 (BA)|(GF)(GB)(ed)|c2 B2 g2|(ge)(cB)(ce)|(ed)(dc)(Bd)|(dc)(cA)(FA)|(GD)(B,D)(GB)|
(ge)(cB)(ce)|e2 (dc)(Bd)|(dc)(cA)(FA)|G4:|

